<?xml version="1.0" encoding="UTF-8"?>
<map version="1.10" tiledversion="1.12.1" orientation="orthogonal" renderorder="right-down" width="25" height="25" tilewidth="40" tileheight="40" infinite="0" nextlayerid="7" nextobjectid="28">
 <properties>
  <property name="open_utdr_logic_status" value=""/>
  <property name="open_utdr_notes" value=""/>
  <property name="open_utdr_scope" value=""/>
  <property name="open_utdr_visual_status" value=""/>
  <property name="speed" type="int" value="0"/>
 </properties>
 <tileset firstgid="1" source="tilesets/bg_tiles_castle.tsx"/>
 <tileset firstgid="41" source="tilesets/free_tile_p4_1894_1570_120x120.tsx"/>
 <tileset firstgid="42" source="tilesets/free_tile_p4_1934_1490_40x40.tsx"/>
 <tileset firstgid="43" source="tilesets/obj_mainchara.tsx"/>
 <tileset firstgid="44" source="tilesets/obj_castle_torch.tsx"/>
 <layer id="1" name="depth_1000000_grid_0" width="25" height="25">
  <data encoding="csv">
0,0,0,0,0,0,0,0,0,0,0,0,0,0,0,0,0,0,0,0,0,0,0,0,0,
0,0,0,0,0,0,0,0,0,0,0,0,0,0,0,0,0,0,0,0,0,0,0,0,0,
0,0,0,0,0,0,0,0,0,0,0,0,0,0,0,0,0,0,0,0,0,0,0,0,0,
0,0,0,0,0,0,0,0,0,0,0,0,0,0,0,0,0,0,0,0,0,0,0,0,0,
0,0,0,0,0,0,0,0,0,0,0,0,0,0,0,0,0,0,0,0,0,0,0,0,0,
0,0,0,0,0,0,0,0,0,0,0,0,0,0,0,0,0,0,0,0,0,0,0,0,0,
0,0,0,0,0,0,0,0,0,0,0,0,0,0,0,0,0,0,0,0,0,0,0,0,0,
0,0,0,0,0,0,0,0,0,0,0,0,0,0,0,0,0,0,0,0,0,0,0,0,0,
0,0,0,0,0,6,7,7,7,7,7,7,7,7,7,7,7,7,7,7,8,0,0,0,0,
0,0,0,0,0,10,11,0,11,0,11,11,11,11,11,0,11,0,11,0,12,0,0,0,0,
0,0,0,0,0,10,0,11,0,11,0,11,11,11,11,11,0,11,0,11,12,0,0,0,0,
0,0,0,0,0,10,11,0,11,0,11,11,11,11,11,0,11,0,11,0,12,0,0,0,0,
0,0,0,0,0,10,0,11,0,11,0,11,0,0,0,11,0,11,0,11,12,0,0,0,0,
0,0,0,0,0,0,0,0,0,11,11,0,0,0,0,0,11,0,0,0,0,0,0,0,0,
0,0,0,0,0,0,0,0,0,0,0,0,0,0,0,11,0,0,0,0,0,0,0,0,0,
0,0,0,0,0,0,0,0,0,0,0,0,0,0,0,0,0,0,0,0,0,0,0,0,0,
0,0,0,0,0,0,0,0,0,0,0,0,0,0,0,0,0,0,0,0,0,0,0,0,0,
0,0,0,0,0,0,0,0,0,0,0,0,0,0,0,0,0,0,0,0,0,0,0,0,0,
0,0,0,0,0,0,0,0,0,0,0,0,0,0,0,0,0,0,0,0,0,0,0,0,0,
0,0,0,0,0,0,0,0,0,0,0,0,0,0,0,0,0,0,0,0,0,0,0,0,0,
0,0,0,0,0,0,0,0,0,0,0,0,0,0,0,0,0,0,0,0,0,0,0,0,0,
0,0,0,0,0,0,0,0,0,0,0,0,0,0,0,0,0,0,0,0,0,0,0,0,0,
0,0,0,0,0,0,0,0,0,0,0,0,0,0,0,0,0,0,0,0,0,0,0,0,0,
0,0,0,0,0,0,0,0,0,0,0,0,0,0,0,0,0,0,0,0,0,0,0,0,0,
0,0,0,0,0,0,0,0,0,0,0,0,0,0,0,0,0,0,0,0,0,0,0,0,0
</data>
 </layer>
 <objectgroup id="2" name="depth_1000000_free_1"/>
 <layer id="3" name="depth_1000000_grid_2" width="25" height="25">
  <data encoding="csv">
0,0,0,0,0,0,0,0,0,0,0,0,0,0,0,0,0,0,0,0,0,0,0,0,0,
0,0,0,0,0,0,0,0,0,0,0,0,0,0,0,0,0,0,0,0,0,0,0,0,0,
0,0,0,0,0,0,0,0,0,0,0,0,0,0,0,0,0,0,0,0,0,0,0,0,0,
0,0,0,0,0,0,0,0,0,0,0,0,0,0,0,0,0,0,0,0,0,0,0,0,0,
0,0,0,0,0,0,0,0,0,0,0,0,0,0,0,0,0,0,0,0,0,0,0,0,0,
0,0,0,0,0,0,0,0,0,0,0,0,0,0,0,0,0,0,0,0,0,0,0,0,0,
0,0,0,0,0,0,0,0,0,0,0,0,0,0,0,0,0,0,0,0,0,0,0,0,0,
0,0,0,0,0,0,0,0,0,0,0,0,0,0,0,0,0,0,0,0,0,0,0,0,0,
0,0,0,0,0,0,0,0,0,0,0,0,0,0,0,0,0,0,0,0,0,0,0,0,0,
0,0,0,0,0,0,0,1,0,1,0,0,0,0,0,1,0,1,0,1,0,0,0,0,0,
0,0,0,0,0,0,1,0,1,0,1,0,0,0,0,0,1,0,1,0,0,0,0,0,0,
0,0,0,0,0,0,0,1,0,1,0,0,0,0,0,1,0,1,0,1,0,0,0,0,0,
0,0,0,0,0,0,1,0,1,0,1,0,0,11,0,0,1,0,1,0,0,0,0,0,0,
0,0,0,0,0,10,0,0,0,0,0,0,11,0,0,0,0,0,0,0,12,0,0,0,0,
0,0,0,0,0,10,0,0,0,0,0,0,0,11,0,0,0,0,0,0,12,0,0,0,0,
0,0,0,0,0,14,15,15,15,0,0,0,0,0,0,0,0,15,15,15,16,0,0,0,0,
0,0,0,0,0,0,0,0,0,10,0,0,0,0,0,0,12,0,0,0,0,0,0,0,0,
0,0,0,0,0,0,0,0,0,10,0,0,0,0,0,0,12,0,0,0,0,0,0,0,0,
0,0,0,0,0,0,0,0,0,14,15,0,0,0,0,15,16,0,0,0,0,0,0,0,0,
0,0,0,0,0,0,0,0,0,0,0,2,3,3,4,0,0,0,0,0,0,0,0,0,0,
0,0,0,0,0,0,0,0,0,0,0,2,3,3,4,0,0,0,0,0,0,0,0,0,0,
0,0,0,0,0,0,0,0,0,0,0,2,3,3,4,0,0,0,0,0,0,0,0,0,0,
0,0,0,0,0,0,0,0,0,0,0,2,3,3,4,0,0,0,0,0,0,0,0,0,0,
0,0,0,0,0,0,0,0,0,0,0,2,3,3,4,0,0,0,0,0,0,0,0,0,0,
0,0,0,0,0,0,0,0,0,0,0,2,3,3,4,0,0,0,0,0,0,0,0,0,0
</data>
 </layer>
 <objectgroup id="4" name="depth_990000_free_0">
  <object id="3" gid="41" x="460" y="480" width="120" height="120"/>
 </objectgroup>
 <objectgroup id="5" name="objects">
  <object id="4" type="obj_mainchara" gid="43" x="504" y="538" width="19" height="38">
   <properties>
    <property name="instanceId" type="int" value="101140"/>
   </properties>
  </object>
  <object id="21" type="obj_castle_torch" gid="44" x="305" y="224" width="15" height="20">
   <properties>
    <property name="instanceId" type="int" value="101157"/>
   </properties>
  </object>
  <object id="22" type="obj_castle_torch" gid="44" x="420" y="224" width="15" height="20">
   <properties>
    <property name="instanceId" type="int" value="101158"/>
   </properties>
  </object>
  <object id="23" type="obj_castle_torch" gid="44" x="592" y="224" width="15" height="20">
   <properties>
    <property name="instanceId" type="int" value="101159"/>
   </properties>
  </object>
  <object id="24" type="obj_castle_torch" gid="44" x="704" y="224" width="15" height="20">
   <properties>
    <property name="instanceId" type="int" value="101160"/>
   </properties>
  </object>
  <object id="25" type="obj_castle_torch" gid="44" x="308" y="60" width="15" height="20">
   <properties>
    <property name="instanceId" type="int" value="101161"/>
   </properties>
  </object>
  <object id="26" type="obj_castle_torch" gid="44" x="704" y="60" width="15" height="20">
   <properties>
    <property name="instanceId" type="int" value="101162"/>
   </properties>
  </object>
 </objectgroup>
</map>
