<?xml version="1.0" encoding="UTF-8"?>
<map version="1.10" tiledversion="1.12.1" orientation="orthogonal" renderorder="right-down" width="16" height="29" tilewidth="40" tileheight="40" infinite="0" nextlayerid="3" nextobjectid="57">
 <properties>
  <property name="open_utdr_logic_status" value=""/>
  <property name="open_utdr_notes" value=""/>
  <property name="open_utdr_scope" value=""/>
  <property name="open_utdr_visual_status" value=""/>
  <property name="speed" type="int" value="0"/>
 </properties>
 <tileset firstgid="1" source="tilesets/obj_mainchara.tsx"/>
 <tileset firstgid="2" source="tilesets/obj_savepoint.tsx"/>
 <tileset firstgid="3" source="tilesets/obj_musicer_darkcastle.tsx"/>
 <tileset firstgid="4" source="tilesets/obj_npc_susiedark.tsx"/>
 <tileset firstgid="5" source="tilesets/obj_castle_torch.tsx"/>
 <tileset firstgid="6" source="tilesets/obj_castle_house.tsx"/>
 <objectgroup id="1" name="objects">
  <object id="1" type="obj_mainchara" gid="1" x="300" y="358" width="19" height="38">
   <properties>
    <property name="instanceId" type="int" value="101065"/>
   </properties>
  </object>
  <object id="3" type="obj_savepoint" gid="2" x="298" y="309" width="20" height="19">
   <properties>
    <property name="instanceId" type="int" value="101067"/>
   </properties>
  </object>
  <object id="7" type="obj_musicer_darkcastle" gid="3" x="20" y="42" width="32" height="32">
   <properties>
    <property name="instanceId" type="int" value="101071"/>
   </properties>
  </object>
  <object id="8" type="obj_npc_susiedark" gid="4" x="394" y="994" width="26" height="46">
   <properties>
    <property name="instanceId" type="int" value="101072"/>
   </properties>
  </object>
  <object id="46" type="obj_castle_torch" gid="5" x="38" y="588" width="15" height="20">
   <properties>
    <property name="instanceId" type="int" value="101110"/>
   </properties>
  </object>
  <object id="47" type="obj_castle_torch" gid="5" x="572" y="588" width="15" height="20">
   <properties>
    <property name="instanceId" type="int" value="101111"/>
   </properties>
  </object>
  <object id="48" type="obj_castle_torch" gid="5" x="16" y="896" width="15" height="20">
   <properties>
    <property name="instanceId" type="int" value="101112"/>
   </properties>
  </object>
  <object id="49" type="obj_castle_torch" gid="5" x="144" y="896" width="15" height="20">
   <properties>
    <property name="instanceId" type="int" value="101113"/>
   </properties>
  </object>
  <object id="50" type="obj_castle_torch" gid="5" x="466" y="896" width="15" height="20">
   <properties>
    <property name="instanceId" type="int" value="101114"/>
   </properties>
  </object>
  <object id="51" type="obj_castle_torch" gid="5" x="594" y="896" width="15" height="20">
   <properties>
    <property name="instanceId" type="int" value="101115"/>
   </properties>
  </object>
  <object id="52" type="obj_castle_house" gid="6" x="120" y="695" width="79" height="83">
   <properties>
    <property name="instanceId" type="int" value="101116"/>
   </properties>
  </object>
  <object id="53" type="obj_castle_house" gid="6" x="366" y="695" width="79" height="83">
   <properties>
    <property name="instanceId" type="int" value="101117"/>
   </properties>
  </object>
  <object id="54" type="obj_castle_house" gid="6" x="124" y="541" width="79" height="83">
   <properties>
    <property name="instanceId" type="int" value="101118"/>
   </properties>
  </object>
  <object id="55" type="obj_castle_house" gid="6" x="370" y="543" width="79" height="83">
   <properties>
    <property name="instanceId" type="int" value="101119"/>
   </properties>
  </object>
 </objectgroup>
</map>
